Dominus_Dark_Funeral/22/apps/fingerprint-gui.svg

<svg xmlns="http://www.w3.org/2000/svg" width="24" height="24" viewBox="0 0 6.35 6.35"><path d="M3.16.17c-.6 0-1.1.11-1.57.34-.15.08-.17.1-.16.2.02.16.1.18.37.06.48-.22.71-.26 1.32-.26.7 0 .95.06 1.53.35.1.06.42.3.54.18.11-.13.04-.23-.25-.4A3.3 3.3 0 0 0 3.16.18zm-.02.7A2.9 2.9 0 0 0 .52 2.52c0 .1.04.17.13.17.06 0 .13-.08.3-.32.36-.53.82-.9 1.43-1.1a2.8 2.8 0 0 1 1.53 0 2.75 2.75 0 0 1 1.58 1.35c.06.14.11.18.18.18.12 0 .18-.09.15-.2A2.91 2.91 0 0 0 3.14.86zm.04.67a2.28 2.28 0 0 0-2.2 1.7 3.42 3.42 0 0 0 .13 1.7c.06.18.08.22.15.22.2.03.22-.06.1-.45-.32-1.09-.04-2.03.75-2.54a1.93 1.93 0 0 1 2.47.34c.37.43.59 1.18.42 1.5-.11.21-.39.34-.6.28-.16-.04-.36-.23-.38-.39-.08-.53-.21-.74-.52-.89a.77.77 0 0 0-.73.02.87.87 0 0 0-.47.61A2.23 2.23 0 0 0 4 5.94c.12.03.3.04.41.04h.21c.12-.06.12-.2 0-.27l-.29-.04a1.88 1.88 0 0 1-1.71-1.85c0-.28.1-.44.35-.54.17-.07.17-.07.35 0 .22.1.33.25.36.52.04.49.38.8.86.8a.83.83 0 0 0 .8-.61c.1-.36-.04-.98-.35-1.45a2.26 2.26 0 0 0-1.8-1zm-.02.72c-.24 0-.48.04-.68.11-.3.16-.59.46-.73.78-.13.23-.13.27-.13.67a2.38 2.38 0 0 0 .28 1.21 2.8 2.8 0 0 0 .73.97c.25.2.28.2.38.14.1-.09.05-.22-.17-.38-.23-.17-.48-.5-.65-.83-.28-.56-.35-1.25-.16-1.64a1.26 1.26 0 0 1 .58-.62 1.3 1.3 0 0 1 1.07 0 1.26 1.26 0 0 1 .67.95c.05.28.13.37.24.3.06-.04.06-.1.06-.3 0-.5-.36-1-.87-1.25-.16-.08-.4-.11-.62-.11zm0 1.35zm0 0a.2.2 0 0 0-.1.03C3 3.68 3 3.71 3 3.91a1.55 1.55 0 0 0 1.19 1.36c.29.06.36.06.42 0 .15-.14.05-.26-.24-.3-.57-.07-1-.52-1.06-1.1-.02-.16-.08-.26-.16-.26z" fill="#e6e6e6"/></svg>

<?xml version="1.0" encoding="UTF-8" standalone="no"?>
<svg
   xmlns:dc="http://purl.org/dc/elements/1.1/"
   xmlns:cc="http://creativecommons.org/ns#"
   xmlns:rdf="http://www.w3.org/1999/02/22-rdf-syntax-ns#"
   xmlns:svg="http://www.w3.org/2000/svg"
   xmlns="http://www.w3.org/2000/svg"
   xmlns:sodipodi="http://sodipodi.sourceforge.net/DTD/sodipodi-0.dtd"
   xmlns:inkscape="http://www.inkscape.org/namespaces/inkscape"
   width="24"
   height="24"
   viewBox="0 0 6.35 6.35"
   version="1.1"
   id="svg4"
   sodipodi:docname="fingerprint-gui.svg"
   inkscape:version="0.92.4 (5da689c313, 2019-01-14)">
  <metadata
     id="metadata10">
    <rdf:RDF>
      <cc:Work
         rdf:about="">
        <dc:format>image/svg+xml</dc:format>
        <dc:type
           rdf:resource="http://purl.org/dc/dcmitype/StillImage" />
        <dc:title></dc:title>
      </cc:Work>
    </rdf:RDF>
  </metadata>
  <defs
     id="defs8" />
  <sodipodi:namedview
     pagecolor="#ffffff"
     bordercolor="#666666"
     borderopacity="1"
     objecttolerance="10"
     gridtolerance="10"
     guidetolerance="10"
     inkscape:pageopacity="0"
     inkscape:pageshadow="2"
     inkscape:window-width="1142"
     inkscape:window-height="480"
     id="namedview6"
     showgrid="false"
     inkscape:zoom="9.8333333"
     inkscape:cx="1.2711864"
     inkscape:cy="12"
     inkscape:window-x="0"
     inkscape:window-y="25"
     inkscape:window-maximized="0"
     inkscape:current-layer="svg4" />
  <path
     d="m 3.16,0.17 c -0.6,0 -1.1,0.11 -1.57,0.34 -0.15,0.08 -0.17,0.1 -0.16,0.2 0.02,0.16 0.1,0.18 0.37,0.06 0.48,-0.22 0.71,-0.26 1.32,-0.26 0.7,0 0.95,0.06 1.53,0.35 0.1,0.06 0.42,0.3 0.54,0.18 C 5.3,0.91 5.23,0.81 4.94,0.64 A 3.3,3.3 0 0 0 3.16,0.18 Z M 3.14,0.87 A 2.9,2.9 0 0 0 0.52,2.52 c 0,0.1 0.04,0.17 0.13,0.17 0.06,0 0.13,-0.08 0.3,-0.32 0.36,-0.53 0.82,-0.9 1.43,-1.1 a 2.8,2.8 0 0 1 1.53,0 2.75,2.75 0 0 1 1.58,1.35 C 5.55,2.76 5.6,2.8 5.67,2.8 5.79,2.8 5.85,2.71 5.82,2.6 A 2.91,2.91 0 0 0 3.14,0.86 Z m 0.04,0.67 a 2.28,2.28 0 0 0 -2.2,1.7 3.42,3.42 0 0 0 0.13,1.7 C 1.17,5.12 1.19,5.16 1.26,5.16 1.46,5.19 1.48,5.1 1.36,4.71 1.04,3.62 1.32,2.68 2.11,2.17 A 1.93,1.93 0 0 1 4.58,2.51 C 4.95,2.94 5.17,3.69 5,4.01 4.89,4.22 4.61,4.35 4.4,4.29 4.24,4.25 4.04,4.06 4.02,3.9 3.94,3.37 3.81,3.16 3.5,3.01 A 0.77,0.77 0 0 0 2.77,3.03 0.87,0.87 0 0 0 2.3,3.64 2.23,2.23 0 0 0 4,5.94 c 0.12,0.03 0.3,0.04 0.41,0.04 h 0.21 c 0.12,-0.06 0.12,-0.2 0,-0.27 L 4.33,5.67 A 1.88,1.88 0 0 1 2.62,3.82 c 0,-0.28 0.1,-0.44 0.35,-0.54 0.17,-0.07 0.17,-0.07 0.35,0 0.22,0.1 0.33,0.25 0.36,0.52 0.04,0.49 0.38,0.8 0.86,0.8 A 0.83,0.83 0 0 0 5.34,3.99 C 5.44,3.63 5.3,3.01 4.99,2.54 a 2.26,2.26 0 0 0 -1.8,-1 z M 3.16,2.26 C 2.92,2.26 2.68,2.3 2.48,2.37 2.18,2.53 1.89,2.83 1.75,3.15 1.62,3.38 1.62,3.42 1.62,3.82 A 2.38,2.38 0 0 0 1.9,5.03 2.8,2.8 0 0 0 2.63,6 C 2.88,6.2 2.91,6.2 3.01,6.14 3.11,6.05 3.06,5.92 2.84,5.76 2.61,5.59 2.36,5.26 2.19,4.93 1.91,4.37 1.84,3.68 2.03,3.29 a 1.26,1.26 0 0 1 0.58,-0.62 1.3,1.3 0 0 1 1.07,0 1.26,1.26 0 0 1 0.67,0.95 C 4.4,3.9 4.48,3.99 4.59,3.92 4.65,3.88 4.65,3.82 4.65,3.62 4.65,3.12 4.29,2.62 3.78,2.37 3.62,2.29 3.38,2.26 3.16,2.26 Z m 0,1.35 z m 0,0 A 0.2,0.2 0 0 0 3.06,3.64 C 3,3.68 3,3.71 3,3.91 a 1.55,1.55 0 0 0 1.19,1.36 c 0.29,0.06 0.36,0.06 0.42,0 C 4.76,5.13 4.66,5.01 4.37,4.97 3.8,4.9 3.37,4.45 3.31,3.87 3.29,3.71 3.23,3.61 3.15,3.61 Z"
     id="path2"
     inkscape:connector-curvature="0"
     style="fill:#e6e6e6" />
</svg>
